ui_kit/lib/assets/icons/decoder.svg

<svg width="19" height="18" viewBox="0 0 19 18" fill="none" xmlns="http://www.w3.org/2000/svg">
<path fill-rule="evenodd" clip-rule="evenodd" d="M17.6695 0.250752C18.0038 0.585088 18.0038 1.12715 17.6695 1.46149L16.5626 2.56836L18.5256 4.53136C18.86 4.86569 18.86 5.40776 18.5256 5.7421L15.5292 8.73852C15.1949 9.07286 14.6528 9.07286 14.3185 8.73852L12.3555 6.77553L10.0042 9.12681C10.2674 9.4828 10.4878 9.86977 10.6601 10.2799C10.9444 10.9565 11.092 11.6827 11.0944 12.4166C11.0969 13.1505 10.9541 13.8776 10.6744 14.5562C10.3947 15.2347 9.98352 15.8512 9.46456 16.3701C8.94561 16.8891 8.32912 17.3002 7.6506 17.58C6.97208 17.8597 6.24493 18.0024 5.51102 18C4.77711 17.9975 4.05093 17.8499 3.3743 17.5656C2.69767 17.2814 2.08396 16.8661 1.56849 16.3437L1.56207 16.3372C0.548396 15.2876 -0.0124685 13.8819 0.000210377 12.4228C0.0128893 10.9638 0.598132 9.56805 1.62989 8.53629C2.66165 7.50454 4.05736 6.91929 5.51643 6.90661C6.69174 6.8964 7.8324 7.25836 8.78018 7.92934L16.4588 0.250752C16.7931 -0.0835841 17.3352 -0.0835841 17.6695 0.250752ZM15.3519 3.7791L13.5662 5.56479L14.9238 6.92241L16.7095 5.13673L15.3519 3.7791ZM2.79054 15.1443C2.09076 14.4181 1.70362 13.4463 1.71239 12.4377C1.72117 11.4276 2.12633 10.4613 2.84063 9.74703C3.55492 9.03274 4.52119 8.62757 5.53131 8.61879C6.54144 8.61001 7.5146 8.99833 8.2412 9.7001C8.60725 10.0536 8.8859 10.4774 9.0815 10.943C9.2783 11.4115 9.38049 11.9142 9.38219 12.4223C9.38389 12.9304 9.28507 13.4338 9.09142 13.9036C8.89776 14.3733 8.6131 14.8001 8.25383 15.1594C7.89455 15.5187 7.46775 15.8033 6.99801 15.997C6.52826 16.1906 6.02485 16.2894 5.51676 16.2877C5.00867 16.286 4.50593 16.1838 4.03749 15.987C3.57047 15.7908 3.14673 15.5045 2.79054 15.1443ZM2.79054 15.1443L2.7937 15.1476L2.78731 15.1411L2.79054 15.1443Z" fill="white"/>
</svg>

<svg xmlns="http://www.w3.org/2000/svg" width="19" height="18" fill="none" viewBox="0 0 19 18"><path fill="#fff" fill-rule="evenodd" d="M17.67.25a.856.856 0 0 1 0 1.211l-1.107 1.107 1.963 1.963a.856.856 0 0 1 0 1.211L15.529 8.74a.856.856 0 0 1-1.21 0l-1.964-1.963-2.35 2.35a5.565 5.565 0 0 1-8.437 7.218l-.006-.007A5.565 5.565 0 0 1 8.78 7.93L16.46.251a.856.856 0 0 1 1.21 0Zm-2.318 3.53-1.786 1.785 1.358 1.357 1.785-1.785-1.357-1.358ZM2.79 15.143A3.852 3.852 0 0 1 8.24 9.7a3.853 3.853 0 1 1-5.45 5.444Zm0 0 .003.004-.007-.007.004.003Z" clip-rule="evenodd"/></svg>
